Papirus-GTK/48x48/apps/alexandra.svg

<?xml version="1.0" encoding="UTF-8" standalone="no"?>
<!-- Created with Inkscape (http://www.inkscape.org/) -->

<svg
   xmlns:dc="http://purl.org/dc/elements/1.1/"
   xmlns:cc="http://creativecommons.org/ns#"
   xmlns:rdf="http://www.w3.org/1999/02/22-rdf-syntax-ns#"
   xmlns:svg="http://www.w3.org/2000/svg"
   xmlns="http://www.w3.org/2000/svg"
   xmlns:sodipodi="http://sodipodi.sourceforge.net/DTD/sodipodi-0.dtd"
   xmlns:inkscape="http://www.inkscape.org/namespaces/inkscape"
   id="svg2"
   height="48"
   viewBox="0 0 48 48"
   width="48"
   version="1.1"
   inkscape:version="0.91 r13725"
   sodipodi:docname="alexandra.svg">
  <defs
     id="defs9" />
  <sodipodi:namedview
     pagecolor="#ffffff"
     bordercolor="#666666"
     borderopacity="1"
     objecttolerance="10"
     gridtolerance="10"
     guidetolerance="10"
     inkscape:pageopacity="0"
     inkscape:pageshadow="2"
     inkscape:window-width="1600"
     inkscape:window-height="849"
     id="namedview7"
     showgrid="false"
     inkscape:zoom="5.71"
     inkscape:cx="19.736676"
     inkscape:cy="24"
     inkscape:window-x="0"
     inkscape:window-y="0"
     inkscape:window-maximized="1"
     inkscape:current-layer="svg2" />
  <metadata
     id="metadata8">
    <rdf:RDF>
      <cc:Work
         rdf:about="">
        <dc:format>image/svg+xml</dc:format>
        <dc:type
           rdf:resource="http://purl.org/dc/dcmitype/StillImage" />
        <dc:title />
      </cc:Work>
    </rdf:RDF>
  </metadata>
  <path
     d="M 14,4 C 8.4772,4 4,8.4772 4,14 c 0.0048,2.7597 1.1499,5.3947 3.1641,7.2812 -0.10341,0.27172 -0.16406,0.57057 -0.16406,0.88867 l 0,5.8301 c -1.1046,0 -2,0.89543 -2,2 0,1.10457 0.89543,2 2,2 l 0,5.8301 c 0,1.203 0.8217,2.17 1.8418,2.17 l 6.6738,0 -2.2988,2.4844 c -0.623,0.674 0.156,1.516 1.402,1.516 l 7.381,0 7.381,0 c 0.913,0 1.647,-0.471 1.619,-1.041 -0.008,-0.167 -0.083,-0.33 -0.217,-0.475 l -2.299,-2.484 6.674,0 c 1.02,0 1.842,-0.967 1.842,-2.17 l 0,-5.3574 1.4941,0.92188 3.9902,2.4609 c 0.674,0.416 1.516,-0.104 1.516,-0.935 l 0,-4.92 0,-4.922 c 0,-0.608 -0.472,-1.096 -1.041,-1.078 -0.16695,0.0055 -0.33002,0.0552 -0.47461,0.14453 l -3.99,2.46 -1.494,0.92 0,-5.355 c 0,-0.316 -0.06,-0.613 -0.162,-0.883 2.015,-1.888 3.159,-4.526 3.162,-7.287 0,-5.5228 -4.477,-10 -10,-10 -3.15,0.0048 -6.114,1.4934 -7.998,4.0176 -1.885,-2.5253 -4.851,-4.0141 -8.002,-4.0176 z"
     id="path4155"
     style="fill:#11ab66;fill-opacity:1" />
  <path
     style="opacity:0.2;fill:#000000;fill-opacity:1"
     id="path4160"
     d="m 14,10 c -2.7496,0 -5,2.2504 -5,5 0,2.7496 2.2504,5 5,5 2.7496,0 5,-2.2504 5,-5 0,-2.7496 -2.2504,-5 -5,-5 z m 16,0 c -2.7496,0 -5,2.2504 -5,5 0,2.7496 2.2504,5 5,5 2.7496,0 5,-2.2504 5,-5 0,-2.7496 -2.2504,-5 -5,-5 z m -16,2 c 1.6687,0 3,1.3313 3,3 0,1.6687 -1.3313,3 -3,3 -1.6687,0 -3,-1.3313 -3,-3 0,-1.6687 1.3313,-3 3,-3 z m 16,0 c 1.6687,0 3,1.3313 3,3 0,1.6687 -1.3313,3 -3,3 -1.6687,0 -3,-1.3313 -3,-3 0,-1.6687 1.3313,-3 3,-3 z"
     inkscape:connector-curvature="0" />
  <path
     d="M 14 9 C 11.2504 9 9 11.2504 9 14 C 9 16.7496 11.2504 19 14 19 C 16.7496 19 19 16.7496 19 14 C 19 11.2504 16.7496 9 14 9 z M 30 9 C 27.2504 9 25 11.2504 25 14 C 25 16.7496 27.2504 19 30 19 C 32.7496 19 35 16.7496 35 14 C 35 11.2504 32.7496 9 30 9 z M 14 11 C 15.6687 11 17 12.3313 17 14 C 17 15.6687 15.6687 17 14 17 C 12.3313 17 11 15.6687 11 14 C 11 12.3313 12.3313 11 14 11 z M 30 11 C 31.6687 11 33 12.3313 33 14 C 33 15.6687 31.6687 17 30 17 C 28.3313 17 27 15.6687 27 14 C 27 12.3313 28.3313 11 30 11 z "
     id="path4153"
     style="fill:#ffffff;fill-opacity:1" />
  <path
     style="fill:#ffffff;fill-opacity:1;opacity:0.2"
     d="M 14 4 C 8.4772 4 4 8.4772 4 14 C 4.0002817 14.161983 4.0173066 14.321424 4.0253906 14.482422 C 4.2961466 9.2015079 8.6517588 5 14 5 C 17.151 5.0035 20.116953 6.4922781 22.001953 9.0175781 C 23.885953 6.4933781 26.85 5.0048 30 5 C 35.351721 5 39.708736 9.2066999 39.974609 14.492188 C 39.982884 14.328166 39.999821 14.165034 40 14 C 40 8.4772 35.523 4 30 4 C 26.85 4.0048 23.885953 5.4933781 22.001953 8.0175781 C 20.116953 5.4922781 17.151 4.0035 14 4 z M 7.0058594 22.115234 C 7.0054352 22.133992 7 22.151027 7 22.169922 L 7 23.169922 C 7 22.851822 7.0606525 22.55297 7.1640625 22.28125 C 7.1080319 22.228772 7.0605391 22.168858 7.0058594 22.115234 z M 36.996094 22.123047 C 36.941722 22.176378 36.8936 22.234912 36.837891 22.287109 C 36.939891 22.557109 37 22.853922 37 23.169922 L 37 22.169922 C 37 22.153801 36.996404 22.139068 36.996094 22.123047 z M 42.958984 24 C 42.792034 24.0055 42.628965 24.055201 42.484375 24.144531 L 38.494141 26.605469 L 37 27.525391 L 37 28.525391 L 38.494141 27.605469 L 42.484375 25.144531 C 42.628965 25.055201 42.792034 25.0055 42.958984 25 C 43.527984 24.982 44 25.470125 44 26.078125 L 44 25.078125 C 44 24.470125 43.527984 23.982 42.958984 24 z M 7 28 C 5.8954 28 5 28.89543 5 30 C 5 30.173784 5.0286555 30.339243 5.0703125 30.5 C 5.2929516 29.638297 6.0687013 29 7 29 L 7 28 z M 14.589844 41 L 13.216797 42.484375 C 12.907225 42.819289 12.944832 43.196277 13.212891 43.490234 C 13.214644 43.48831 13.215021 43.486296 13.216797 43.484375 L 15.515625 41 L 14.589844 41 z M 28.484375 41 L 30.783203 43.484375 C 30.78386 43.485086 30.784502 43.485616 30.785156 43.486328 C 30.926613 43.330913 31.00944 43.151165 31 42.958984 C 30.992 42.791984 30.917203 42.629375 30.783203 42.484375 L 29.410156 41 L 28.484375 41 z "
     id="path4162" />
  <path
     style="fill:#000000;fill-opacity:1;opacity:0.3"
     d="M 4.0253906 13.482422 C 4.01652 13.655108 4 13.825108 4 14 C 4.0046665 16.682931 5.0949018 19.241197 7.0058594 21.115234 C 7.0125509 20.818118 7.0667692 20.536898 7.1640625 20.28125 C 5.2680877 18.50548 4.155034 16.064336 4.0253906 13.482422 z M 39.974609 13.492188 C 39.844222 16.071876 38.732219 18.512175 36.837891 20.287109 C 36.934687 20.543335 36.990329 20.825027 36.996094 21.123047 C 38.908354 19.247387 39.997083 16.684666 40 14 C 40 13.8284 39.983151 13.661666 39.974609 13.492188 z M 5.0703125 29.5 C 5.0286567 29.660757 5 29.826216 5 30 C 5 31.10457 5.89543 32 7 32 L 7 31 C 6.0693837 31 5.29359 30.360777 5.0703125 29.5 z M 37 31.472656 L 37 32.472656 L 38.494141 33.394531 L 42.484375 35.855469 C 43.158375 36.271469 44 35.750922 44 34.919922 L 44 33.919922 C 44 34.750922 43.158375 35.271469 42.484375 34.855469 L 38.494141 32.394531 L 37 31.472656 z M 7 36.830078 L 7 37.830078 C 7 39.033078 7.8216969 40 8.8417969 40 L 14.589844 40 L 15.515625 39 L 8.8417969 39 C 7.8216969 39 7 38.033078 7 36.830078 z M 37 36.830078 C 37 38.033078 36.178203 39 35.158203 39 L 28.484375 39 L 29.410156 40 L 35.158203 40 C 36.178203 40 37 39.033078 37 37.830078 L 37 36.830078 z M 30.783203 42.486328 C 30.5048 42.791168 29.98519 43 29.380859 43 L 22 43 L 14.619141 43 C 13.993154 43 13.484569 42.787206 13.212891 42.490234 C 12.59963 43.16326 13.376693 44 14.619141 44 L 22 44 L 29.380859 44 C 30.293859 44 31.028 43.528984 31 42.958984 C 30.992023 42.792471 30.91647 42.63101 30.783203 42.486328 z "
     id="path4167" />
</svg>

<?xml version="1.0" encoding="UTF-8" standalone="no"?>
<!-- Created with Inkscape (http://www.inkscape.org/) -->
<svg id="svg2" xmlns:rdf="http://www.w3.org/1999/02/22-rdf-syntax-ns#" xmlns="http://www.w3.org/2000/svg" height="48" viewBox="0 0 48 48" width="48" version="1.1" xmlns:cc="http://creativecommons.org/ns#" xmlns:dc="http://purl.org/dc/elements/1.1/">
 <metadata id="metadata8">
  <rdf:RDF>
   <cc:Work rdf:about="">
    <dc:format>image/svg+xml</dc:format>
    <dc:type rdf:resource="http://purl.org/dc/dcmitype/StillImage"/>
    <dc:title/>
   </cc:Work>
  </rdf:RDF>
 </metadata>
 <path id="rect4144" d="m14 4c-5.5228 0-10 4.4772-10 10 0.0048 2.7597 1.1499 5.3947 3.1641 7.2812-0.10341 0.27172-0.16406 0.57057-0.16406 0.88867v5.8301c-1.1046 0-2 0.89543-2 2s0.89543 2 2 2v5.8301c0 1.203 0.8217 2.17 1.8418 2.17h6.6738l-2.2988 2.4844c-0.623 0.674 0.156 1.516 1.402 1.516h7.381 7.381c0.913 0 1.647-0.471 1.619-1.041-0.008-0.167-0.083-0.33-0.217-0.475l-2.299-2.484h6.674c1.02 0 1.842-0.967 1.842-2.17v-5.3574l1.4941 0.92188 3.9902 2.4609c0.674 0.416 1.516-0.104 1.516-0.935v-4.92-4.922c0-0.608-0.472-1.096-1.041-1.078-0.16695 0.0055-0.33002 0.0552-0.47461 0.14453l-3.99 2.46-1.494 0.92v-5.355c0-0.316-0.06-0.613-0.162-0.883 2.015-1.888 3.159-4.526 3.162-7.287 0-5.5228-4.477-10-10-10-3.15 0.0048-6.114 1.4934-7.998 4.0176-1.885-2.5253-4.851-4.0141-8.002-4.0176zm0 5c2.7496 0 5 2.2504 5 5s-2.2504 5-5 5-5-2.2504-5-5 2.2504-5 5-5zm16 0c2.7496 0 5 2.2504 5 5s-2.2504 5-5 5-5-2.2504-5-5 2.2504-5 5-5zm-16 2c-1.6687 0-3 1.3313-3 3s1.3313 3 3 3 3-1.3313 3-3-1.3313-3-3-3zm16 0c-1.6687 0-3 1.3313-3 3s1.3313 3 3 3 3-1.3313 3-3-1.3313-3-3-3z" fill="#11ab66"/>
 <path id="path4205" opacity=".3" d="m14 8c-2.75 0-5 2.25-5 5 0 0.165 0.0095 0.329 0.0254 0.49 0.2573-2.513 2.3966-4.49 4.9746-4.49s4.717 1.977 4.975 4.49c0.015-0.161 0.025-0.325 0.025-0.49 0-2.75-2.25-5-5-5zm16 0c-2.75 0-5 2.25-5 5 0 0.165 0.01 0.329 0.025 0.49 0.258-2.513 2.397-4.49 4.975-4.49s4.717 1.977 4.975 4.49c0.015-0.161 0.025-0.325 0.025-0.49 0-2.75-2.25-5-5-5zm-25.975 5.482c-0.0089 0.173-0.0254 0.343-0.0254 0.518 0.0047 2.683 1.0949 5.241 3.0059 7.115 0.0067-0.297 0.0609-0.578 0.1582-0.834-1.896-1.776-3.0091-4.217-3.1387-6.799zm35.95 0c-0.128 2.584-1.24 5.027-3.137 6.805 0.097 0.257 0.152 0.538 0.158 0.836 1.912-1.876 3.001-4.438 3.004-7.123 0-0.175-0.017-0.345-0.025-0.518zm-28.924 0.018c-0.027 0.164-0.051 0.328-0.051 0.5 0 1.669 1.331 3 3 3s3-1.331 3-3c0-0.172-0.024-0.336-0.051-0.5-0.236 1.425-1.452 2.5-2.949 2.5s-2.713-1.075-2.949-2.5zm16 0c-0.027 0.164-0.051 0.328-0.051 0.5 0 1.669 1.331 3 3 3s3-1.331 3-3c0-0.172-0.024-0.336-0.051-0.5-0.236 1.425-1.452 2.5-2.949 2.5s-2.713-1.075-2.949-2.5zm-21.981 16c-0.0416 0.161-0.0703 0.326-0.0703 0.5 0 1.105 0.8954 2 2 2v-1c-0.9308 0-1.7066-0.639-1.9297-1.5zm31.93 1.973v1l1.494 0.922 3.99 2.46c0.674 0.416 1.516-0.104 1.516-0.935v-1c0 0.831-0.842 1.351-1.516 0.935l-3.99-2.46-1.494-0.922zm-30 5.357v1c0 1.203 0.8217 2.17 1.8418 2.17h5.7482l0.926-1h-6.6742c-1.0201 0-1.8418-0.967-1.8418-2.17zm30 0c0 1.203-0.822 2.17-1.842 2.17h-6.674l0.926 1h5.748c1.02 0 1.842-0.967 1.842-2.17v-1zm-6.217 5.656c-0.278 0.305-0.797 0.514-1.402 0.514h-7.381-7.381c-0.626 0-1.134-0.213-1.406-0.51-0.613 0.673 0.163 1.51 1.406 1.51h7.381 7.381c0.913 0 1.647-0.471 1.619-1.041-0.008-0.166-0.084-0.328-0.217-0.473z"/>
 <path id="path4210" opacity=".1" d="m14 4c-5.5228 0-10 4.4772-10 10 0.0003 0.162 0.0173 0.321 0.0254 0.482 0.2712-5.2801 4.6266-9.482 9.9746-9.482 3.151 0.0035 6.117 1.4923 8.002 4.0176 1.884-2.5242 4.848-4.0128 7.998-4.0176 5.348 0 9.703 4.2019 9.975 9.482 0.008-0.16 0.025-0.32 0.025-0.482 0-5.5228-4.477-10-10-10-3.15 0.0048-6.114 1.4934-7.998 4.0176-1.885-2.5253-4.851-4.0141-8.002-4.0176zm0 7c-1.669 0-3 1.331-3 3 0 0.172 0.024 0.336 0.051 0.5 0.236-1.425 1.452-2.5 2.949-2.5s2.713 1.075 2.949 2.5c0.027-0.164 0.051-0.328 0.051-0.5 0-1.669-1.331-3-3-3zm16 0c-1.669 0-3 1.331-3 3 0 0.172 0.024 0.336 0.051 0.5 0.236-1.425 1.452-2.5 2.949-2.5s2.713 1.075 2.949 2.5c0.027-0.164 0.051-0.328 0.051-0.5 0-1.669-1.331-3-3-3zm-20.975 3.51c-0.0159 0.161-0.0254 0.325-0.0254 0.49 0 2.75 2.25 5 5 5s5-2.25 5-5c0-0.165-0.01-0.329-0.025-0.49-0.258 2.513-2.397 4.49-4.975 4.49s-4.7173-1.977-4.9746-4.49zm16 0c-0.015 0.161-0.025 0.325-0.025 0.49 0 2.75 2.25 5 5 5s5-2.25 5-5c0-0.165-0.01-0.329-0.025-0.49-0.258 2.513-2.397 4.49-4.975 4.49s-4.717-1.977-4.975-4.49zm-18.019 7.605c-0.0005 0.019-0.0059 0.036-0.0059 0.055v1c0-0.318 0.0607-0.617 0.1641-0.889-0.0561-0.052-0.1036-0.112-0.1582-0.166zm29.99 0.008c-0.054 0.053-0.102 0.112-0.158 0.164 0.102 0.27 0.162 0.567 0.162 0.883v-1c0-0.016-0.004-0.031-0.004-0.047zm5.963 1.877c-0.167 0.006-0.33 0.055-0.475 0.145l-3.99 2.46-1.494 0.92v1l1.494-0.92 3.99-2.46c0.145-0.09 0.308-0.139 0.475-0.145 0.569-0.018 1.041 0.47 1.041 1.078v-1c0-0.608-0.472-1.096-1.041-1.078zm-35.959 4c-1.1046 0-2 0.895-2 2 0 0.174 0.0287 0.339 0.0703 0.5 0.2231-0.861 0.9989-1.5 1.9297-1.5v-1zm7.59 13l-1.373 1.484c-0.31 0.336-0.273 0.712-0.004 1.006 0.002-0.002 0.002-0.004 0.004-0.006l2.299-2.484h-0.926zm13.894 0l2.299 2.484c0.001 0.001 0 0.002 0 0.002 0.142-0.155 0.226-0.334 0.217-0.527-0.008-0.167-0.083-0.33-0.217-0.475l-1.373-1.484h-0.926z" fill="#fff"/>
</svg>
